X:1
T: Charley the Prayermaster
C:
R:Jig
Q:180
K:G
M:6/8
L:1/16
A2|G2E2D2 G4A2|B2e2e2 d2B2A2|G2E2D2 G2A2B2|c2B2A2 B2G2E2|G2E2D2 G4A2|B2e2e2 d2B2A2|G2E2D2 G4A2|B2G2G2 G4A2|
G2E2D2 G4A2|B2e2e2 d2B2A2|G2E2D2 G2A2B2|c2B2A2 B2G2E2|G2E2D2 G4A2|B2e2e2 d2B2A2|G2E2D2 G4A2|B2G2G2 G4d2|
e4d2 e4d2|e2f2e2 e2d2B2|d4B2 d4B2|d2g2e2 d2B2G2|e4d2 e4f2|g2f2e2 d2B2A2|G2E2D2 G4A2|B2G2G2 G4d2|
e4d2 e4d2|e2f2e2 e2d2B2|d4B2 d4B2|d2g2e2 d2B2G2|e4d2 e4f2|g2f2e2 d2B2A2|G2E2D2 G4A2|B2G2G2 G4||
